X: 1
P:MacArthur Road (Pipes version)
C:by Dave Richardson
C:From Matt Petrie
C:Arr. T. Traub 7-9-03
R:reel
M:4/4
K:Eb
L:1/8
|: c|"Eb"eB B/2B/2B Bcef|"Eb"g2 ge fece|"Fm"f2 fg fece|"Ab"fage "Bb"fecf|"Eb"eB B/2B/2B Bcef|
"Eb"g2 ge "Cm"fece|"Fm"f2 fg "Ab"fecB|"Bb"ceef "Eb"e3 :||: f|"Eb"gB B/2B/2B gBaB|"Eb"gBaB gece|
"Fm"f2 fg fece |"Ab"fage "Bb"fecf|"Eb"gB B/2B/2B gB"Ab"aB|"Eb"gB"Ab"aB "Eb"gece|"Ab"f2 fg fecB|"Bb"ceef "Eb"e3 :|
